ddff_WindArrows/WeatherSymbol_WMO_WindArrowNH_20.svg

<?xml version="1.0" encoding="UTF-8" standalone="no"?>
<!-- Created with Inkscape (http://www.inkscape.org/) -->

<svg
   xmlns:dc="http://purl.org/dc/elements/1.1/"
   xmlns:cc="http://creativecommons.org/ns#"
   xmlns:rdf="http://www.w3.org/1999/02/22-rdf-syntax-ns#"
   xmlns:svg="http://www.w3.org/2000/svg"
   xmlns="http://www.w3.org/2000/svg"
   version="1.1"
   width="165"
   height="55"
   viewBox="-48 -33 41.25 13.75"
   id="svg3873">
  <desc
     id="en">Observed wind speed: 98–102 knots</desc>
  <metadata
     id="metadata3890">
    <rdf:RDF>
      <cc:Work
         rdf:about="">
        <dc:format>image/svg+xml</dc:format>
        <dc:type
           rdf:resource="http://purl.org/dc/dcmitype/StillImage" />
        <dc:title></dc:title>
      </cc:Work>
    </rdf:RDF>
  </metadata>
  <defs
     id="defs3888" />
  <g
     transform="matrix(0.87939268,0,0,0.64012073,-6.7135014,2.0684929)"
     id="g3892">
    <g
       transform="translate(0,-36.25)"
       id="g3876"
       style="fill:#000000;stroke:none">
      <path
         d="m -44,1 0,-1 5,-17.25 5,17.25 0,1"
         id="path3878" />
      <path
         d="m -34,1 0,-1 5,-17.25 5,17.25 0,1"
         id="path3880" />
    </g>
    <g
       transform="translate(0,-36.25)"
       id="g3882"
       style="fill:none;stroke:#000000;stroke-width:2">
      <path
         d="M 0,0 H -40"
         id="path3884" />
    </g>
  </g>
</svg>

<?xml version="1.0" encoding="UTF-8" standalone="no"?>
<!DOCTYPE svg PUBLIC "-//W3C//DTD SVG 1.1//EN" "http://www.w3.org/Graphics/SVG/1.1/DTD/svg11.dtd">
<svg xmlns="http://www.w3.org/2000/svg" version="1.1" width="200" height="200" viewBox="-48 -33 50 50">
<desc id="en">Observed wind speed: 98–102 knots</desc>
<g style="fill:black; stroke:none; stroke-width:0;">
	<path d="M -44,1 L -44,0 L -39,-17.25 L -34,0 L -34,1"/>
	<path d="M -34,1 L -34,0 L -29,-17.25 L -24,0 L -24,1"/>
</g>
<g style="fill:none; stroke:black; stroke-width:2;">
	<path d="M 0,0 h -40"/>
</g>
</svg>
